!!!SOCIAL_FUNCTION:	songs of a medicine-man
!!!PDT:	1936
!!!OTL: No_24_My_Grandfather_the_Sun.krn
!!!REG: Oklahoma and Montana
!!!LANG: Tone
!!!LING_GROUP: Algonquin
**kern
*staff1
=1-
*clefF4
*k[f#c#]
*M2/4
8.d\L
16d\Jk
8d\L
8d\J
=2
8d\L
8d\J
8d\
8r
=3
8.d\L
16B\Jk
8A\L
8A\J
=4
8A\L
8A\J
8A\
8r
=5
8.d\L
16d\Jk
8d\L
8d\J
=6
8d\L
8d\J
8d\
8r
=7
8.d\L
16B\Jk
8A\L
8A\J
=8
8A\L
8A\J
8A\
8r
=9
8.A\L
16F#\Jk
8F#\L
8F#\J
=10
8F#\L
8F#\J
8F#\
8r
=11
8.E\L
16E\Jk
8E\L
8E\J
=12
8E\L
8E\J
8E\
8r
=13
8.D\L
16D\Jk
8D\L
8D\J
=14
8D\L
8D\J
8D\L
8D\J
=15
8r
8F#\
8D\L
8D\J
=16
8E\L
8E\J
8E\
8r
=17
8.D\L
16D\Jk
8D\L
8D\J
=18
8D\L
8D\J
8D\L
8D\J
=19
8r
8F#\
8D\L
8D\J
=20
8E\L
8D\J
8D\
8r
=21
8D\L
8D\J
8D\L
8D\J
=22
8D\L
8D\J
8D\
8r
=23
8B\L
8A\J
4A\
=24
8A\L
8A\J
8A\
8r
=25
8.A\L
16G\Jk
4G\
=26
8G\L
8G\J
8G\
8r
=27
8.E\L
16E\Jk
4E\
=28
8E\L
8E\J
8E\
8r
=29
8.D\L
16D\Jk
8D\L
8D\J
=30
8D\L
8D\J
8D\L
8D\J
=31
8r
8F#\
8D\L
8D\J
=32
8E\L
8E\J
8E\
8r
=33
8.D\L
16D\Jk
8D\L
8D\J
=34
8D\L
8D\J
8D\L
8D\J
=35
8r
8F#\
8D\L
8D\J
=36
8E\L
8D\J
8.D/L
16C#/Jk
=37
4D\
8D\L
8D\J
=38
8D\L
8D\J
8D\
8r
==
*-
